X: 30
T: Gut Nacht Vals
R: waltz
S: printed MS from Steve Rauch
Z: 2008 John Chambers <jc:trillian.mit.edu>
O: Budowitz
D: Budowitz "Wedding Without a Bride"
M: 3/4
L: 1/8
K: Cm
G, \
| "Cm"C2 C2 (3EDC | "G"D2 D2 ED | "Cm"E4 B2 | G2 ^F2 ED \
| "Cm"C2 C2 (3EDC | "G"D2 D2 ED | "G"^F2 G2 F2 | G>^F G2 G,2 |
| "Cm"C2 C2 (3EDC | "G"D2 D2 ED | "Cm"E4 B2 | G2 ^F2 ED \
| "Cm"E2 E2 DC | "G7"=B,3 G,B,D | "Cm"C3 cGE | C6 :| [K:=B=e=A]
K: C
|: B,CD \
| "C"E3 CDC | E3 CDC | "G7"F3 DED | F3 DED \
| "G7"D2 E2 FG | A2 GF ED |1 "C"^D2 E2 E2 | E3 :|2 "C"C2 C2 C2 | C6 ||
|:"C"G,2 C2 D2 | E6 | E3 CDE | "G7"F3 E (3FED \
| "C"C6- | C6 | G,2 C2 E2 | G2 E2 |
| "F"A3 GFE | "G7"D6 | "F"A,2 D2 E2 | F2 E2 D2 \
| "C"E2 G2 c2 | c6 | "G7"E2 F2 F2 | F3 E (3FED \
| "C"C6- | C6 :|
%%sep 2 1 500
